flaticon/fitness/gold-medal.svg

<svg xmlns="http://www.w3.org/2000/svg" width="32" height="32" viewBox="0 0 24 24">
    <path d="M12.398438 12.398438C12.398438 12.160156 12.238281 12 12 12 9.121094 12 6.800781 14.359375 6.800781 17.238281 6.800781 17.480469 6.960938 17.640625 7.199219 17.640625 7.398438 17.640625 7.601562 17.441406 7.601562 17.238281 7.601562 14.800781 9.558594 12.800781 12 12.800781 12.238281 12.800781 12.398438 12.640625 12.398438 12.398438zM12 21.601562C11.761719 21.601562 11.601562 21.761719 11.601562 22 11.601562 22.238281 11.761719 22.398438 12 22.398438 14.878906 22.398438 17.199219 20.078125 17.199219 17.238281 17.199219 17 17.039062 16.839844 16.800781 16.839844 16.558594 16.839844 16.398438 17 16.398438 17.238281 16.398438 19.640625 14.441406 21.601562 12 21.601562zM13.960938 17.039062C13.878906 16.878906 13.761719 16.800781 13.601562 16.800781L11.359375 16.800781 13.078125 15.121094C13.238281 14.960938 13.238281 14.71875 13.078125 14.558594 12.921875 14.398438 12.679688 14.398438 12.519531 14.558594L10.121094 16.960938C10 17.078125 10 17.238281 10.039062 17.398438 10.078125 17.558594 10.238281 17.640625 10.398438 17.640625L12.71875 17.640625 10.878906 19.761719C10.71875 19.921875 10.761719 20.160156 10.917969 20.320312 11 20.359375 11.121094 20.398438 11.199219 20.398438 11.320312 20.398438 11.441406 20.359375 11.519531 20.28125L13.917969 17.480469C14 17.359375 14.039062 17.199219 13.960938 17.039062zM13.960938 17.039062"/>
    <path d="M 23.480469 3.519531 C 23.558594 3.441406 23.601562 3.359375 23.601562 3.238281 C 23.601562 3.121094 23.558594 3.039062 23.480469 2.960938 L 20.761719 0.238281 C 20.71875 0.078125 20.558594 0 20.398438 0 L 3.640625 0 C 3.628906 0 3.617188 0 3.601562 0 C 3.597656 0.00390625 3.589844 0.00390625 3.585938 0.00390625 C 3.578125 0.00390625 3.574219 0.00390625 3.566406 0.00390625 C 3.558594 0.0078125 3.554688 0.0078125 3.546875 0.0078125 C 3.410156 0.03125 3.273438 0.109375 3.238281 0.238281 L 0.519531 2.960938 C 0.441406 3.039062 0.398438 3.160156 0.398438 3.238281 C 0.398438 3.320312 0.441406 3.441406 0.519531 3.519531 L 6.398438 9.359375 L 6.398438 13.199219 C 6.398438 13.25 6.410156 13.292969 6.421875 13.332031 C 5.652344 14.441406 5.199219 15.792969 5.199219 17.238281 C 5.199219 20.960938 8.238281 24 12 24 C 15.761719 24 18.800781 20.960938 18.800781 17.238281 C 18.800781 15.804688 18.355469 14.46875 17.601562 13.367188 L 17.601562 9.359375 Z M 16.800781 12.398438 C 16.792969 12.394531 16.789062 12.386719 16.78125 12.382812 C 15.628906 11.234375 14.070312 10.492188 12.335938 10.410156 C 12.328125 10.40625 12.320312 10.40625 12.316406 10.40625 C 12.265625 10.40625 12.21875 10.402344 12.171875 10.402344 C 12.113281 10.402344 12.058594 10.398438 12 10.398438 C 11.941406 10.398438 11.886719 10.402344 11.828125 10.402344 C 11.78125 10.402344 11.734375 10.40625 11.683594 10.40625 C 11.679688 10.40625 11.671875 10.40625 11.664062 10.410156 C 9.929688 10.492188 8.371094 11.234375 7.21875 12.382812 C 7.210938 12.386719 7.207031 12.394531 7.199219 12.398438 L 7.199219 9.601562 L 16.800781 9.601562 Z M 17.039062 8.800781 L 12.921875 8.800781 L 20.398438 1 L 22.640625 3.238281 Z M 16.382812 4 L 7.617188 4 L 4.566406 0.800781 L 19.433594 0.800781 Z M 15.621094 4.800781 L 12 8.601562 L 8.378906 4.800781 Z M 3.601562 0.960938 L 11.078125 8.800781 L 6.960938 8.800781 L 1.359375 3.238281 Z M 12 23.199219 C 8.679688 23.199219 6 20.519531 6 17.238281 C 6 14.863281 7.375 12.792969 9.371094 11.8125 C 9.382812 11.804688 9.394531 11.796875 9.410156 11.792969 C 9.421875 11.785156 9.433594 11.78125 9.445312 11.773438 C 10.242188 11.398438 11.117188 11.199219 12 11.199219 C 12.054688 11.199219 12.113281 11.199219 12.167969 11.203125 C 12.183594 11.203125 12.199219 11.203125 12.21875 11.203125 C 12.257812 11.207031 12.300781 11.207031 12.339844 11.210938 C 12.359375 11.210938 12.375 11.210938 12.390625 11.214844 C 12.433594 11.214844 12.472656 11.21875 12.511719 11.222656 C 12.527344 11.222656 12.546875 11.226562 12.5625 11.226562 C 12.605469 11.230469 12.644531 11.234375 12.6875 11.238281 C 12.703125 11.242188 12.714844 11.242188 12.730469 11.246094 C 12.777344 11.25 12.820312 11.257812 12.863281 11.261719 C 12.875 11.265625 12.886719 11.265625 12.898438 11.269531 C 12.953125 11.277344 13.007812 11.285156 13.0625 11.292969 C 13.082031 11.296875 13.097656 11.300781 13.117188 11.304688 C 13.148438 11.3125 13.183594 11.316406 13.21875 11.324219 C 13.257812 11.332031 13.296875 11.339844 13.332031 11.351562 C 13.34375 11.351562 13.355469 11.355469 13.363281 11.355469 C 16.023438 11.980469 18 14.390625 18 17.238281 C 18 20.519531 15.320312 23.199219 12 23.199219 Z M 12 23.199219"/>
</svg>

<svg xmlns="http://www.w3.org/2000/svg" width="32" height="32" viewBox="0 0 24 24">
    <path d="M12.398 12.398c0-.238-.16-.398-.398-.398-2.879 0-5.2 2.36-5.2 5.238 0 .242.16.403.4.403.198 0 .402-.2.402-.403 0-2.437 1.957-4.437 4.398-4.437.238 0 .398-.16.398-.403zm0 0M12 21.602c-.238 0-.398.16-.398.398 0 .238.16.398.398.398 2.879 0 5.2-2.32 5.2-5.16 0-.238-.16-.398-.4-.398-.241 0-.402.16-.402.398 0 2.403-1.957 4.364-4.398 4.364zm0 0M13.96 17.04c-.081-.161-.198-.24-.358-.24h-2.243l1.72-1.679a.39.39 0 0 0 0-.562.385.385 0 0 0-.56 0l-2.398 2.402c-.121.117-.121.277-.082.437.04.16.2.243.36.243h2.32l-1.84 2.12c-.16.16-.117.4.039.56.082.038.203.077.281.077.121 0 .242-.039.32-.117l2.399-2.8a.432.432 0 0 0 .043-.442zm0 0"/>
    <path d="M23.48 3.52a.369.369 0 0 0 .122-.282c0-.117-.043-.199-.122-.277L20.762.238C20.719.078 20.559 0 20.398 0H3.601c-.003.004-.011.004-.015.004h-.02c-.007.004-.011.004-.02.004-.136.023-.273.101-.308.23L.52 2.961a.437.437 0 0 0-.122.277c0 .082.043.203.122.282l5.878 5.84v3.84c0 .05.012.093.024.132a6.845 6.845 0 0 0-1.223 3.906C5.2 20.961 8.24 24 12 24c3.762 0 6.8-3.04 6.8-6.762a6.84 6.84 0 0 0-1.198-3.87V9.358zm-6.68 8.878c-.007-.003-.01-.011-.019-.015a6.737 6.737 0 0 0-4.445-1.973c-.008-.004-.016-.004-.02-.004-.05 0-.097-.004-.144-.004-.059 0-.113-.004-.172-.004-.059 0-.113.004-.172.004-.047 0-.094.004-.144.004-.004 0-.012 0-.02.004a6.737 6.737 0 0 0-4.445 1.973c-.008.004-.012.012-.02.015V9.602h9.602zm.24-3.597h-4.118L20.398 1l2.243 2.238zM16.382 4H7.617L4.567.8h14.867zm-.762.8L12 8.603 8.379 4.8zM3.601.96l7.477 7.84H6.961L1.359 3.239zM12 23.2c-3.32 0-6-2.68-6-5.962a6.049 6.049 0 0 1 3.371-5.425c.012-.008.024-.016.04-.02.01-.008.023-.012.034-.02a6.013 6.013 0 0 1 2.723-.57h.05c.04.004.083.004.122.008.02 0 .035 0 .05.004.044 0 .083.004.122.008.015 0 .035.004.05.004l.126.011c.015.004.027.004.042.008.047.004.09.012.133.016.012.004.024.004.035.008l.165.023.054.012c.031.008.067.011.102.02a.96.96 0 0 1 .113.027c.012 0 .023.003.031.003A6.047 6.047 0 0 1 18 17.238c0 3.282-2.68 5.961-6 5.961zm0 0"/>
</svg>
